!!!id: BC103
!!!page: 129
!!!COM: GADBOIS, Chs-Emile
!!!LYR: GADBOIS, Chs-Emile
!!!OTR@@FR: Le Soir sur l'eau
!!!AGN-type: Chanson strophique (avec refrain intégré), 3:5(10/12)
!!!AGN-theme: spiritual, nature
!!!AGN-rime: abbab, except v:1 = abcab
**kern	**text	**text	**text
*part1	*	*	*
*clefG2	*	*	*
!!LO:TX:a:t=Berceur
*M2/4	*	*	*
*k[]	*	*	*
*C:	*	*	*
*	*v:1	*v:2	*v:3
*	*pline:1h1	*pline:1h1	*pline:1h1
*	*refrain	*refrain	*refrain
*	*italic	*italic	*italic
{8g	Le	Le	Le
=1	=1	=1	=1
4.e	soir	soir	soir
8g	sur	sur	sur
=2	=2	=2	=2
4.a	l'eau,	l'eau,	l'eau,
*	*pline:1h2	*pline:1h2v	*pline:1h2vv
8g	oh!	oh!	oh!
=3	=3	=3	=3
8e	qu'il	qu'il	qu'il
8g	fait	fait	fait
8e	bon	bon	bon
*	*Xitalic	*Xitalic	*Xitalic
*	*Xrefrain	*Xrefrain	*Xrefrain
8g	chan-	rê-	d'ai-
=4	=4	=4	=4
4.a}	-ter,	-ver,	-mer,
*	*pline:2	*pline:5	*pline:8
{{8cc	Lors-	Lors-	En
!!LO:PB:g=original
=5	=5	=5	=5
8a	-que	-que	é-
8g	la	le	-le-
8e	lune	flot	-vant
8g	é-	ber-	nos
=6	=6	=6	=6
4.a}	-clair[e]	-ceur	coeurs
{8cc	et	nous	vers
=7	=7	=7	=7
8a	que	in-	les
8g	le	-vit[e]	beau-
8e	ciel	au	-tés
8g	est	re-	d'en
=8	=8	=8	=8
4.d}}	beau!	-pos;	haut;
*	*pline:3	*pline:6	*pline:9
{{8e	La	La	L'a-
!!LO:PB:g=original
=9	=9	=9	=9
4.c	bri-	paix	-mour
8d	-se	du	a-
=10	=10	=10	=10
4.e}	vient	soir	-lors
{8g	mê-	s'é-	est
=11	=11	=11	=11
8e	-ler	-tend	plus
8d	sa	sur	pur
8c	dou-	nos	et
8d	-ce	cô-	plus
=12	=12	=12	=12
4.e}}	voix	-teaux;	beau;
*	*pline:4h1	*pline:7h1	*pline:10h1
{{8g	À	Quand	En
=13	=13	=13	=13
8e	nos	la	con-
8d	chants	na-	-tem-
8c	les	-tu-	-plant
8d	plus	-re	les
!!LO:PB:g=original
=14	=14	=14	=14
8e	beaux,	dort,	cieux,
*	*refrain	*refrain	*refrain
*	*italic	*italic	*italic
*	*pline:1h2r	*pline:1h2r	*pline:1h2r
8g	oh!	oh!	oh!
8a	qu'il	qu'il	qu'il
8cc	fait	fait	fait
=15	=15	=15	=15
4.dd	bon	bon	bon
8ee	chan-	rê-	d'ai-
=16	=16	=16	=16
[2cc	-ter,	-ver,	-mer,
=17	=17	=17	=17
4cc]	.	.	.
*	*Xitalic	*Xitalic	*Xitalic
*	*Xrefrain	*Xrefrain	*Xrefrain
}	.	.	.
*>Refrain	*>Refrain	*>Refrain	*>Refrain
*	*pline:1h1	*	*
*	*refrain	*	*
*	*italic	*	*
{8a	Le	.	.
=18	=18	=18	=18
2cc	soir,	.	.
=19	=19	=19	=19
2dd	sur	.	.
=20	=20	=20	=20
4cc;	l'eau!	.	.
*	*Xitalic	*	*
*	*Xrefrain	*	*
8r}}	.	.	.
==	==	==	==
*-	*-	*-	*-
!!!EED: Judith Valerie Engel
!!!EEV: 2026/01/13
!!!EED-1: Avery Yewon Hong
!!!EEV-1: 2026/01/21
!!!EED-2: Ève Poudrier
!!!EEV-2: 2026/05/05
